X:1
T:German Dance No. 5
T:German Dance No. 5
T:D. 420.5
T:Franz Schubert
T:Public Domain (PianoXML typeset) | 12 German Dances D.420 - 1817
C:Franz Schubert
Z:Public Domain (PianoXML typeset) | 12 German Dances D.420 - 1817
%%score { 1 | ( 2 3 ) }
L:1/8
Q:3/4=45
M:3/4
K:D
V:1 treble nm="Piano" snm="Pno."
V:2 bass 
V:3 bass 
V:1
!p! A2 |{e} (dcdc de) | f4 a2 | e2 aA a2 | f4 A2 |{e} (dcdcde) | f4 a2 | e2 aA a2 | d4 ::!f! f2 | %10
{f} (e^defgb) | a2 (ad') f2 | g2 (gb) e2 | f2 (fa) d2 | (e^defgc') | a2 (ad') f2 | g2 (gb) c2 | %17
 d4 :| %18
V:2
 z2 | D,2 .[F,A,D]2 [F,A,D]2 | D,2 [F,A,D]2 [F,A,D]2 | A,,2 [G,A,C]2 [G,A,C]2 | %4
 D,2 [F,A,D]2 [F,A,D]2 | D,2 [F,A,D]2 [F,A,D]2 | D,2 [F,A,D]2 [F,A,D]2 | A,,2 [G,A,C]2 [G,A,C]2 | %8
 [D,F,D]4 ::[K:treble] z2 | x2 [CGA]2 [CGA]2 | x2 [DFA]2 [DFA]2 | x2 [CGA]2 [CGA]2 | %13
 x2 [DFA]2 [DFA]2 | x2 [CGA]2 [CGA]2 | x2 [DFA]2 [DFA]2 | x2 [CGA]2 [CGA]2 | [DF]4 :| %18
V:3
 x2 | x6 | x6 | x6 | x6 | x6 | x6 | x6 | x4 ::[K:treble] x2 | A,6 | A,6 | A,6 | A,6 | A,6 | A,6 | %16
 A,6 | x4 :| %18

